X:174
T:Peggy's Wedding. FTB.174
M:6/8
L:1/8
Q:120
B:Fiddler's Tune Book 2, pub.1954,EFDSS.
R:.Jig
O:England
N:
Z:Chris Partington <www.cpartington.plus.com>
K:D
dedd2d|dfa afd|ded ded|cde edc|
dedd2d|dfa afd|gag faf|cde ecA:|
|:deda2d|f2da2d|deda2d|cde ecA|
ded afd|fed afd|gbg faf|cde ecA:|

